symbols/web/table_restaurant/materialsymbolsrounded/table_restaurant_wght200gradN25fill1_40px.svg

<svg xmlns="http://www.w3.org/2000/svg" height="40" width="40"><path d="M10.75 21.792h18.542l-.667-4.834h-17.25Zm-1.917 9.875q-.291 0-.479-.229-.187-.23-.146-.521l1.875-13.959h-4q-.541 0-.854-.437-.312-.438-.146-.979l1.959-6.75q.083-.334.354-.563Q7.667 8 8.042 8H32q.375.042.667.25.291.208.375.583L35 15.542q.125.541-.188.979-.312.437-.854.437h-4l1.875 13.959q.042.291-.166.521-.209.229-.5.229-.209 0-.417-.146t-.208-.479l-1.084-7.875H10.583L9.5 31.042q-.042.333-.229.479-.188.146-.438.146Z"/></svg>

<svg xmlns="http://www.w3.org/2000/svg" height="40" width="40"><path d="M10.75 21.792H29.292L28.625 16.958H11.375ZM8.833 31.667Q8.542 31.667 8.354 31.438Q8.167 31.208 8.208 30.917L10.083 16.958H6.083Q5.542 16.958 5.229 16.521Q4.917 16.083 5.083 15.542L7.042 8.792Q7.125 8.458 7.396 8.229Q7.667 8 8.042 8H32Q32.375 8.042 32.667 8.25Q32.958 8.458 33.042 8.833L35 15.542Q35.125 16.083 34.812 16.521Q34.5 16.958 33.958 16.958H29.958L31.833 30.917Q31.875 31.208 31.667 31.438Q31.458 31.667 31.167 31.667Q30.958 31.667 30.75 31.521Q30.542 31.375 30.542 31.042L29.458 23.167H10.583L9.5 31.042Q9.458 31.375 9.271 31.521Q9.083 31.667 8.833 31.667Z"/></svg>
